X: 101
T: Yankee Doodle Ancient v.2
P: piffero secondo b0002
O: safd 003
%R: march
F: http://ancients.sudburymuster.org/mus/ssp/pdf/fyf10F.pdf
Z: 2020 John Chambers <jc:trillian.mit.edu>
M: 2/4
L: 1/8
K: D
z |\
F2 GA | FA GE | F2 GA | F2 Ez |\
F2 GA | BA GF | E2 DE | F2 F :|
|: z |\
BG GE | GB AF | F>G F>E | DE F2 |\
BG GE | GB A2 | AG GG | F2 F :|


